Configs/Linux/Debian/fjrodafo/.config/eww/icons/Power_Menu/Hibernate.svg

<svg xmlns="http://www.w3.org/2000/svg" id="svg1" width="800" height="800" fill="none" viewBox="0 0 24 24"><path id="path1" stroke="#000" stroke-linecap="round" stroke-linejoin="round" stroke-width="2" d="M12 3v18m4-17-4 4-3.991-4m0 16L12 16l4 4M3 12h18M4 8l4.009 4L4 16m16 0-4-4 4-4" style="stroke:#fff;stroke-opacity:1"/></svg>

<?xml version="1.0" encoding="UTF-8" standalone="no"?>
<svg
  width="800px"
  height="800px"
  viewBox="0 0 24 24"
  fill="none"
  version="1.1"
  id="svg1"
  sodipodi:docname="Hibernate.svg"
  inkscape:export-filename="Hibernate.png"
  inkscape:export-xdpi="96"
  inkscape:export-ydpi="96"
  inkscape:version="1.4 (e7c3feb, 2024-10-09)"
  xmlns:inkscape="http://www.inkscape.org/namespaces/inkscape"
  xmlns:sodipodi="http://sodipodi.sourceforge.net/DTD/sodipodi-0.dtd"
  xmlns="http://www.w3.org/2000/svg"
  xmlns:svg="http://www.w3.org/2000/svg"
>
  <defs
    id="defs1"
  />
  <sodipodi:namedview
    id="namedview1"
    pagecolor="#ffffff"
    bordercolor="#000000"
    borderopacity="0.25"
    inkscape:showpageshadow="2"
    inkscape:pageopacity="0.0"
    inkscape:pagecheckerboard="true"
    inkscape:deskcolor="#d1d1d1"
    inkscape:zoom="1"
    inkscape:cx="200"
    inkscape:cy="200"
    inkscape:window-width="1852"
    inkscape:window-height="1066"
    inkscape:window-x="61"
    inkscape:window-y="7"
    inkscape:window-maximized="1"
    inkscape:current-layer="svg1"
  />
  <path
    d="M12 3V21M16 4L12 8L8.00878 4M8.00878 20L12 16L16 20M3 12H21M4 8L8.00878 12L4 16M20 16L16 12L20 8"
    stroke="#000000"
    stroke-width="2"
    stroke-linecap="round"
    stroke-linejoin="round"
    id="path1"
    style="stroke:#ffffff;stroke-opacity:1"
  />
</svg>
